static/assets/img/icons/theme/design/arrows.svg

<svg height="24" viewBox="0 0 24 24" width="24" xmlns="http://www.w3.org/2000/svg"><g fill="none" fill-rule="evenodd"><path d="m0 0h24v24h-24z" opacity="0"/><g fill="#000"><path d="m10.4289322 12.3786797-5.12132036-5.12132039c-.39052429-.39052429-.39052429-1.02368927 0-1.41421356.3905243-.39052429 1.02368928-.39052429 1.41421357 0l5.12132039 5.12132035 6.1923881-6.19238816c.3905243-.39052429 1.0236893-.39052429 1.4142136 0s.3905243 1.02368927 0 1.41421356l-6.1923882 6.1923882 6.1923882 6.1923881c.3905243.3905243.3905243 1.0236893 0 1.4142136s-1.0236893.3905243-1.4142136 0l-6.1923881-6.1923882-5.12132039 5.1213204c-.39052429.3905243-1.02368927.3905243-1.41421357 0-.39052429-.3905243-.39052429-1.0236893 0-1.4142136z" opacity=".3" transform="matrix(.70710678 .70710678 -.70710678 .70710678 12.37868 -5.127417)"/><path d="m3.51471863 12 2.12132034 2.1213203c.39052429.5522848.39052429 1.0236893 0 1.4142136s-.86192881.3905243-1.41421356 0l-3.53553391-3.5355339 3.53553391-3.53553391c.47140452-.47140452.94280904-.47140452 1.41421356 0s.47140452.94280905 0 1.41421357zm8.48528137 8.4852814 2.1213203-2.1213204c.5522848-.3905243 1.0236893-.3905243 1.4142136 0s.3905243.8619288 0 1.4142136l-3.5355339 3.5355339-3.53553391-3.5355339c-.47140452-.4714045-.47140452-.942809 0-1.4142136.47140452-.4714045.94280905-.4714045 1.41421357 0zm8.4852814-8.4852814-2.1213204-2.12132034c-.3905243-.55228475-.3905243-1.02368927 0-1.41421357.3905243-.39052429.8619288-.39052429 1.4142136 0l3.5355339 3.53553391-3.5355339 3.5355339c-.4714045.4714045-.942809.4714045-1.4142136 0-.4714045-.4714045-.4714045-.942809 0-1.4142136zm-8.4852814-8.48528137-2.12132034 2.12132034c-.55228475.39052429-1.02368927.39052429-1.41421357 0-.39052429-.39052429-.39052429-.86192881 0-1.41421356l3.53553391-3.53553391 3.5355339 3.53553391c.4714045.47140452.4714045.94280904 0 1.41421356s-.942809.47140452-1.4142136 0z" fill-rule="nonzero"/></g></g></svg>

<svg width="24px" height="24px" viewBox="0 0 24 24" version="1.1" xmlns="http://www.w3.org/2000/svg" xmlns:xlink="http://www.w3.org/1999/xlink">
    <title>Icon For Arrows</title>
    <g stroke="none" stroke-width="1" fill="none" fill-rule="evenodd">
        <polygon opacity="0" points="0 0 24 0 24 24 0 24"></polygon>
        <path d="M10.4289322,12.3786797 L5.30761184,7.25735931 C4.91708755,6.86683502 4.91708755,6.23367004 5.30761184,5.84314575 C5.69813614,5.45262146 6.33130112,5.45262146 6.72182541,5.84314575 L11.8431458,10.9644661 L18.0355339,4.77207794 C18.4260582,4.38155365 19.0592232,4.38155365 19.4497475,4.77207794 C19.8402718,5.16260223 19.8402718,5.79576721 19.4497475,6.1862915 L13.2573593,12.3786797 L19.4497475,18.5710678 C19.8402718,18.9615921 19.8402718,19.5947571 19.4497475,19.9852814 C19.0592232,20.3758057 18.4260582,20.3758057 18.0355339,19.9852814 L11.8431458,13.7928932 L6.72182541,18.9142136 C6.33130112,19.3047379 5.69813614,19.3047379 5.30761184,18.9142136 C4.91708755,18.5236893 4.91708755,17.8905243 5.30761184,17.5 L10.4289322,12.3786797 Z" fill="#000000" opacity="0.3" transform="translate(12.378680, 12.378680) rotate(-315.000000) translate(-12.378680, -12.378680) "></path>
        <path d="M3.51471863,12 L5.63603897,14.1213203 C6.02656326,14.6736051 6.02656326,15.1450096 5.63603897,15.5355339 C5.24551468,15.9260582 4.77411016,15.9260582 4.22182541,15.5355339 L0.686291501,12 L4.22182541,8.46446609 C4.69322993,7.99306157 5.16463445,7.99306157 5.63603897,8.46446609 C6.10744349,8.93587061 6.10744349,9.40727514 5.63603897,9.87867966 L3.51471863,12 Z M12,20.4852814 L14.1213203,18.363961 C14.6736051,17.9734367 15.1450096,17.9734367 15.5355339,18.363961 C15.9260582,18.7544853 15.9260582,19.2258898 15.5355339,19.7781746 L12,23.3137085 L8.46446609,19.7781746 C7.99306157,19.3067701 7.99306157,18.8353656 8.46446609,18.363961 C8.93587061,17.8925565 9.40727514,17.8925565 9.87867966,18.363961 L12,20.4852814 Z M20.4852814,12 L18.363961,9.87867966 C17.9734367,9.32639491 17.9734367,8.85499039 18.363961,8.46446609 C18.7544853,8.0739418 19.2258898,8.0739418 19.7781746,8.46446609 L23.3137085,12 L19.7781746,15.5355339 C19.3067701,16.0069384 18.8353656,16.0069384 18.363961,15.5355339 C17.8925565,15.0641294 17.8925565,14.5927249 18.363961,14.1213203 L20.4852814,12 Z M12,3.51471863 L9.87867966,5.63603897 C9.32639491,6.02656326 8.85499039,6.02656326 8.46446609,5.63603897 C8.0739418,5.24551468 8.0739418,4.77411016 8.46446609,4.22182541 L12,0.686291501 L15.5355339,4.22182541 C16.0069384,4.69322993 16.0069384,5.16463445 15.5355339,5.63603897 C15.0641294,6.10744349 14.5927249,6.10744349 14.1213203,5.63603897 L12,3.51471863 Z" fill="#000000" fill-rule="nonzero"></path>
    </g>
</svg>
